X: 31552
T: Pádraig O'Keefe's
R: polka
M: 2/4
K: Dmajor
|:A2 AG/A/|BA GB|AE GE|DE GB|
A2 AG/A/|BA GB|AB/A/ GE|D2 D2:|
|:d2 AG/A/|BA GB|AE GE|DE GA|
dA AG/A/|BA GB|AB/A/ GE|D2 D2:|

